!!!OTL: GUTE NACHT GUTE NACHT ALLEN MUEDEN SEIS GEBRACHT
!!!ARE: Europa, Mitteleuropa, Deutschland
!!!SCT: B0244
!!!YEM: Copyright 1995, estate of Helmut Schaffrath.
**kern
*ICvox
*Ivox
*M3/4
*k[b-e-a-]
*E-:
{8.g
16f
=1
4e-
4r
8.b-
16a-
=2
4g
4r}
{8.ee-
16dd
=3
8dd
8cc
8b-
8cc
8.b-
16a-
=4
4g
2r}
=5
{8.f
16g
8f
8g
8g
8b-
=6
8b-
8a-
4a-
4r}
=7
{8.g
16a-
8g
8g
8a-
8cc
=8
8cc
8b-
4b-
4r}
=9
{8.ee-
16b-
8cc
8a-
8f
8b-
=10
4g
4r}
{8.f
16a-
=11
4g
4r
8.f
16g
=12
4e-
4r}
==
!!!AGN: Tageszeiten - Lied, Nacht
!!!ONB: ESAC (Essen Associative Code) Database: BOEHME
!!!AMT: simple triple
!!!AIN: vox
!!!EED: Helmut Schaffrath
!!!EEV: 1.0
*-
